( Pocket 3 )
( Mach2/3 Postprocessor )
N20G00G21G17G90G40G49G80
N30G71
N40T4M06
N50G00G43Z20.000H4
N60S8000M03
N70G94
N80X0.000Y0.000F250.0
N90G00X1.600Y8.600Z6.000
N100G01Z-8.000F250.0
N110G01X102.400
N120Y9.400
N130X1.600
N140Y8.600
N150G00Z6.000
N160G00X52.000Y38.360
N170G01Z-8.000F250.0
N180G3X53.140Y39.500I0.000J1.140
N190G3X52.000Y40.640I-1.140J0.000
N200G3X50.860Y39.500I0.000J-1.140
N210G3X52.000Y38.360I1.140J0.000
N220G01Y37.080
N230G3X54.420Y39.500I0.000J2.420
N240G3X52.000Y41.920I-2.420J0.000
N250G3X49.580Y39.500I0.000J-2.420
N260G3X52.000Y37.080I2.420J0.000
N270G01Y35.800
N280G3X55.700Y39.500I0.000J3.700
N290G3X52.000Y43.200I-3.700J0.000
N300G3X48.300Y39.500I0.000J-3.700
N310G3X52.000Y35.800I3.700J0.000
N320G01Y34.520
N330G3X56.980Y39.500I0.000J4.980
N340G3X52.000Y44.480I-4.980J0.000
N350G3X47.020Y39.500I0.000J-4.980
N360G3X52.000Y34.520I4.980J0.000
N370G01Y33.240
N380G3X58.260Y39.500I0.000J6.260
N390G3X52.000Y45.760I-6.260J0.000
N400G3X45.740Y39.500I0.000J-6.260
N410G3X52.000Y33.240I6.260J0.000
N420G01Y31.960
N430G3X59.540Y39.500I0.000J7.540
N440G3X52.000Y47.040I-7.540J0.000
N450G3X44.460Y39.500I0.000J-7.540
N460G3X52.000Y31.960I7.540J0.000
N470G01Y30.680
N480G3X60.820Y39.500I0.000J8.820
N490G3X52.000Y48.320I-8.820J0.000
N500G3X43.180Y39.500I0.000J-8.820
N510G3X52.000Y30.680I8.820J0.000
N520G01Y29.400
N530G3X62.100Y39.500I0.000J10.100
N540G3X52.000Y49.600I-10.100J0.000
N550G3X41.900Y39.500I0.000J-10.100
N560G3X52.000Y29.400I10.100J0.000
N570G01Y28.120
N580G3X63.380Y39.500I0.000J11.380
N590G3X52.000Y50.880I-11.380J0.000
N600G3X40.620Y39.500I0.000J-11.380
N610G3X52.000Y28.120I11.380J0.000
N620G01Y26.840
N630G3X64.660Y39.500I0.000J12.660
N640G3X52.000Y52.160I-12.660J0.000
N650G3X39.340Y39.500I0.000J-12.660
N660G3X52.000Y26.840I12.660J0.000
N670G01Y25.560
N680G3X65.940Y39.500I0.000J13.940
N690G3X52.000Y53.440I-13.940J0.000
N700G3X38.060Y39.500I0.000J-13.940
N710G3X52.000Y25.560I13.940J0.000
N720G01Y24.280
N730G3X67.220Y39.500I0.000J15.220
N740G3X52.000Y54.720I-15.220J0.000
N750G3X36.780Y39.500I0.000J-15.220
N760G3X52.000Y24.280I15.220J0.000
N770G01Y23.000
N780G3X68.500Y39.500I0.000J16.500
N790G3X52.000Y56.000I-16.500J0.000
N800G3X35.500Y39.500I0.000J-16.500
N810G3X52.000Y23.000I16.500J0.000
N820G01Y21.720
N830G3X69.780Y39.500I0.000J17.780
N840G3X52.000Y57.280I-17.780J0.000
N850G3X34.220Y39.500I0.000J-17.780
N860G3X52.000Y21.720I17.780J0.000
N870G01Y20.440
N880G3X71.060Y39.500I0.000J19.060
N890G3X52.000Y58.560I-19.060J0.000
N900G3X32.940Y39.500I0.000J-19.060
N910G3X52.000Y20.440I19.060J0.000
N920G01Y19.160
N930G3X72.340Y39.500I0.000J20.340
N940G3X52.000Y59.840I-20.340J0.000
N950G3X31.660Y39.500I0.000J-20.340
N960G3X52.000Y19.160I20.340J0.000
N970G01Y17.880
N980G3X73.620Y39.500I0.000J21.620
N990G3X52.000Y61.120I-21.620J0.000
N1000G3X30.380Y39.500I0.000J-21.620
N1010G3X52.000Y17.880I21.620J0.000
N1020G01Y16.600
N1030G3X74.900Y39.500I0.000J22.900
N1040G3X52.000Y62.400I-22.900J0.000
N1050G3X29.100Y39.500I0.000J-22.900
N1060G3X52.000Y16.600I22.900J0.000
N1070G00Z6.000
N1080G00X1.600Y69.600
N1090G01Z-8.000F250.0
N1100G01X102.400
N1110Y70.400
N1120X1.600
N1130Y69.600
N1140G00Z6.000
N1150G00Z20.000
N1160G00X0.000Y0.000
N1170M09
N1180M30
%
